src/assets/images/prototype/produits-utilises/3-vitres.svg

<svg width="349" height="689" viewBox="0 0 349 689" fill="none" xmlns="http://www.w3.org/2000/svg">
<path d="M65.5225 17.5635L42.8906 17.6969L42.8906 39.7447L68.0522 39.7447" stroke="#E0E0E0" stroke-width="5" stroke-dasharray="10 10"/>
<path d="M209.558 109.075C228.456 132.873 270.452 189.392 287.25 225.088C308.248 269.709 323.471 299.106 320.846 305.405C318.222 311.704 308.248 314.329 308.248 321.678C308.248 329.028 348.143 440.316 345.519 514.333C342.894 588.351 352.343 656.069 308.248 673.392C264.152 690.715 49.4493 692.29 29.5013 662.368C9.55339 632.446 0.10437 539.006 3.779 487.036C7.45362 435.067 26.8768 331.652 36.8508 321.678C46.8248 311.704 130.816 277.583 130.816 257.635C130.816 237.687 113.493 237.162 113.493 225.088C113.493 213.014 118.217 207.765 124.517 199.366C130.816 190.967 113.493 181.518 113.493 169.969C113.493 158.42 124.517 166.294 124.517 152.646C124.517 138.997 104.569 136.372 113.493 120.624C117.007 114.423 126.916 110.983 135.49 109.233" stroke="#E0E0E0" stroke-width="5" stroke-dasharray="10 10"/>
<path d="M45.2473 114.323L42.8855 113.503L45.2473 114.323ZM71.4946 96.9993L69.2935 95.8141L71.4946 96.9993ZM69.1015 45.8816C68.6937 47.2315 68.2367 48.6427 67.7355 50.1117L72.4677 51.7262C72.9846 50.2109 73.4603 48.7429 73.8878 47.3274L69.1015 45.8816ZM64.6452 58.545C63.6091 61.2275 62.487 64.0312 61.3024 66.9403L65.9332 68.8259C67.1244 65.9006 68.2586 63.0669 69.3094 60.3466L64.6452 58.545ZM57.8512 75.3244C56.7182 78.0601 55.5538 80.8658 54.3783 83.7217L59.002 85.6248C60.1747 82.7755 61.3358 79.9777 62.4707 77.2377L57.8512 75.3244ZM50.9455 92.1544C49.8236 94.9491 48.7057 97.7809 47.6069 100.638L52.2737 102.433C53.362 99.6028 54.4708 96.7941 55.5856 94.0171L50.9455 92.1544ZM44.412 109.193C43.8943 110.627 43.3848 112.064 42.8855 113.503L47.6092 115.142C48.1012 113.724 48.6036 112.307 49.1146 110.892L44.412 109.193ZM42.8855 113.503C42.4418 114.782 41.9426 116.07 41.397 117.362L46.0034 119.307C46.5865 117.925 47.1258 116.535 47.6092 115.142L42.8855 113.503ZM37.7637 124.908C36.4335 127.401 35.0077 129.862 33.5581 132.263L37.8384 134.848C39.3183 132.397 40.7911 129.855 42.1748 127.263L37.7637 124.908ZM29.0397 139.525C27.3996 142.116 25.8211 144.597 24.4525 146.876L28.7389 149.45C30.0698 147.234 31.6099 144.813 33.2642 142.2L29.0397 139.525ZM20.3051 154.941C19.6349 156.769 19.1458 158.887 19.778 160.783L24.5214 159.202C24.458 159.012 24.4019 158.293 24.9995 156.663L20.3051 154.941ZM19.778 160.783C20.0927 161.727 20.8735 162.671 22.1745 162.906C23.1811 163.089 24.0595 162.748 24.5602 162.508C25.6312 161.995 26.802 161.029 27.9448 159.952L24.5159 156.313C23.413 157.352 22.72 157.845 22.4003 157.999C22.2058 158.092 22.5072 157.885 23.0664 157.987C23.4039 158.048 23.7635 158.211 24.0623 158.497C24.3436 158.766 24.4692 159.046 24.5214 159.202L19.778 160.783ZM34.9889 152.215C36.988 149.82 39.1544 147.111 41.4046 144.215L37.4565 141.148C35.2313 144.011 33.1026 146.672 31.1507 149.01L34.9889 152.215ZM47.5793 136.093C49.5947 133.39 51.6222 130.625 53.6094 127.877L49.5577 124.947C47.5834 127.677 45.5704 130.422 43.5709 133.104L47.5793 136.093ZM59.5282 119.577C61.6027 116.627 63.5615 113.797 65.3311 111.198L61.1979 108.384C59.4438 110.961 57.4995 113.77 55.4383 116.701L59.5282 119.577ZM70.9878 102.667C72.1845 100.792 73.1239 99.2467 73.6958 98.1845L69.2935 95.8141C68.8144 96.7037 67.9591 98.1186 66.773 99.977L70.9878 102.667ZM73.6958 98.1845C74.6407 96.4298 75.6258 94.5927 76.6374 92.7104L72.2332 90.3434C71.2181 92.232 70.2374 94.061 69.2935 95.8141L73.6958 98.1845ZM82.5564 81.8163C84.5637 78.1842 86.6178 74.5519 88.6708 71.0794L84.3667 68.5348C82.2814 72.0621 80.2023 75.7391 78.1803 79.3977L82.5564 81.8163ZM95.1949 60.6828C96.4031 58.8989 97.5842 57.2484 98.7277 55.7643L94.767 52.7127C93.5481 54.2947 92.3068 56.0307 91.055 57.8791L95.1949 60.6828Z" fill="#E0E0E0"/>
<path d="M211.129 109.075C210.779 106.1 212.493 98.4706 222.153 91.7513C234.226 83.3522 266.773 85.9769 271.498 72.3283C276.222 58.6797 236.326 15.1092 211.129 6.71009C190.971 -0.00921919 106.14 3.91037 66.2437 6.71008C65.9455 9.76699 65.76 13.499 65.8031 17.5M135.536 109.075C132.212 96.8258 123.882 70.3335 117.163 62.3543C111.46 55.5817 105.999 54.618 97 53.8754" stroke="#E0E0E0" stroke-width="5" stroke-dasharray="10 10"/>
</svg>

<svg width="349" height="689" fill="none" xmlns="http://www.w3.org/2000/svg"><path d="M65.522 17.564l-22.631.133v22.048h25.161m141.506 69.33c18.898 23.798 60.894 80.317 77.692 116.013 20.998 44.621 36.221 74.018 33.596 80.317-2.624 6.299-12.598 8.924-12.598 16.273 0 7.35 39.895 118.638 37.271 192.655-2.625 74.018 6.824 141.736-37.271 159.059-44.096 17.323-258.799 18.898-278.747-11.024C9.553 632.446.104 539.006 3.78 487.036c3.675-51.969 23.098-155.384 33.072-165.358 9.974-9.974 93.965-44.095 93.965-64.043 0-19.948-17.323-20.473-17.323-32.547 0-12.074 4.724-17.323 11.024-25.722 6.299-8.399-11.024-17.848-11.024-29.397s11.024-3.675 11.024-17.323c0-13.649-19.948-16.274-11.024-32.022 3.514-6.201 13.423-9.641 21.997-11.391" stroke="#E0E0E0" stroke-width="5" stroke-dasharray="10 10"/><path d="M45.247 114.323l-2.361-.82 2.361.82zm26.248-17.324l-2.202-1.185L71.495 97zM69.1 45.882a125.92 125.92 0 01-1.365 4.23l4.732 1.614c.517-1.515.992-2.983 1.42-4.399L69.1 45.882zm-4.456 12.663a502.512 502.512 0 01-3.343 8.395l4.631 1.886a508.285 508.285 0 003.376-8.48l-4.664-1.801zm-6.794 16.78c-1.133 2.735-2.297 5.54-3.473 8.397l4.624 1.903c1.173-2.85 2.334-5.647 3.469-8.387l-4.62-1.914zm-6.905 16.83a624.761 624.761 0 00-3.34 8.483l4.668 1.795a617.692 617.692 0 013.312-8.416l-4.64-1.863zm-6.534 17.038a366.52 366.52 0 00-1.526 4.31l4.723 1.639a358.32 358.32 0 011.506-4.25l-4.703-1.699zm-1.526 4.31a63.097 63.097 0 01-1.489 3.859l4.606 1.945a68.503 68.503 0 001.606-4.165l-4.724-1.639zm-5.122 11.405a160.273 160.273 0 01-4.206 7.355l4.28 2.585a165.795 165.795 0 004.337-7.585l-4.411-2.355zm-8.724 14.617c-1.64 2.591-3.219 5.072-4.587 7.351l4.286 2.574c1.33-2.216 2.87-4.637 4.525-7.25l-4.224-2.675zm-8.735 15.416c-.67 1.828-1.16 3.946-.527 5.842l4.743-1.581c-.063-.19-.12-.909.479-2.539l-4.695-1.722zm-.527 5.842c.315.944 1.096 1.888 2.396 2.123 1.007.183 1.886-.158 2.386-.398 1.071-.513 2.242-1.479 3.385-2.556l-3.43-3.639c-1.102 1.039-1.795 1.532-2.115 1.686-.194.093.107-.114.666-.012.338.061.698.224.996.51.282.269.407.549.46.705l-4.744 1.581zm15.21-8.568c2-2.395 4.166-5.104 6.417-8l-3.949-3.067a293.17 293.17 0 01-6.305 7.862l3.838 3.205zm12.591-16.122a701.42 701.42 0 006.03-8.216l-4.051-2.93a700.514 700.514 0 01-5.987 8.157l4.008 2.989zm11.95-16.516c2.074-2.95 4.032-5.78 5.802-8.379l-4.133-2.814a669.036 669.036 0 01-5.76 8.317l4.09 2.876zm11.459-16.91c1.197-1.875 2.136-3.42 2.708-4.483l-4.403-2.37c-.479.89-1.334 2.305-2.52 4.163l4.215 2.69zm2.708-4.483c.945-1.754 1.93-3.591 2.941-5.474l-4.404-2.367c-1.015 1.889-1.996 3.718-2.94 5.471l4.403 2.37zm8.86-16.368a428.75 428.75 0 016.115-10.737l-4.304-2.544a434.17 434.17 0 00-6.187 10.863l4.376 2.418zm12.639-21.133a99.815 99.815 0 013.533-4.919l-3.961-3.051a104.742 104.742 0 00-3.712 5.166l4.14 2.804z" fill="#E0E0E0"/><path d="M211.129 109.075c-.35-2.975 1.364-10.604 11.024-17.324 12.073-8.399 44.62-5.774 49.345-19.423 4.724-13.648-35.172-57.219-60.369-65.618-20.158-6.72-104.989-2.8-144.885 0-.299 3.057-.484 6.789-.44 10.79m69.732 91.575c-3.324-12.25-11.654-38.742-18.373-46.72-5.703-6.773-11.164-7.737-20.163-8.48" stroke="#E0E0E0" stroke-width="5" stroke-dasharray="10 10"/></svg>
